X:1
T:Lenzes Ankunft
T:Ludwig Erk
T:Christian August Vulpius
T:Lenzes Ankunft
T:CPDL - Creative Commons Attribution Non Commercial 3.0
T:CPDL - Creative Commons Attribution Non Commercial 3.0
C:Ludwig Erk
Z:Christian August Vulpius
Z:CPDL - Creative Commons Attribution Non Commercial 3.0
%%score [ ( 1 2 ) ( 3 4 5 ) ]
L:1/8
Q:1/4=80
M:6/8
K:Bb
V:1 treble nm="S\nA"
V:2 treble 
V:3 bass nm="T\nB"
V:4 bass 
V:5 bass 
V:1
!mf!"^Mäßig geschwind" F | B2 B A>GA | B3 F z F |"^cresc." G2 A B2 c | %4
w: Chor:~~1.~Der|Lenz ist an- * ge-|kom- men! Habt|ihr es nicht ver-|
w: Einz.:~~2.~Ihr|seht es an * den|Fel- dern, ihr|seht es an den|
w: Chor:~~3.~Hier|Blüm- lein auf * der|Hei- de, dort|Schäf- lein auf der|
"^dim." (d2 F) B z"^dolce" .d | c>e c/B/ A>GF | B2 c !breath!d2 B |"^cresc." e2 d c2 B | %8
w: nom- * men? Es|sa- * gen's * euch * die|Vö- ge- lein, es|sa- gen´s euch die|
w: Wäl- * dern, der|Ku- * ckuck * ruft, * der|Fin- ke schlägt, es|ju- belt, was sich|
w: Wei- * de: ~ach|seht * doch, * wie * sich|al- les freut! Es|hat die Welt sich|
!>(! A2 B !breath!c2!>)!!f! F |!<(! (f2!<)!!>(! d ec)!>)!!p!"^Einzelne"F | %10
w: Blü- me- lein: Der|Lenz, _ _ _ der|
w: froh be- wegt: *||
w: schön er- neut: *||
!<(! (f2!<)!!>(! d e!breath!c)!>)!!f!"^Chor"F |!>(! f2 ^f g>e!>)!c | (!^!B3 c>dc) | B2 z3 |] %14
w: Lenz, _ _ _ der|Lenz ist an- * ge-|kom- * * *|men!|
w: ||||
w: ||||
V:2
 F | F>ED E2 E | (F2 D) D x D | E2 E E2 E | D3 D x F | F2 F E2 F | F2 F F2 F | EGF G2 G | %8
 F2 G F2 F | BF(B A)cF | BF(B A)cF | B2 A G2 G | (F2 D E>FE) | D2 x3 |] %14
V:3
!mf! F, | D>CB, C2 C | (D2 B,) B, z B, |"^cresc." B,2 B, G,2 _G, |"^dim." F,3 F, z"^dolce" .B, | %5
 A,2 A, C>B,A, | B,2 A, !breath!B,2 F, |"^cresc." G,2 B, G,CC |!>(! C2 B, !breath!A,2!>)!!f! F, | %9
!<(! (D2!<)!!>(! B, CA,)!>)!!p!F, |!<(! (D2!<)!!>(! B, C!breath!A,)!>)!!f!F, | %11
!>(! !^!D2 C B,2!>)! C | (D2 B, A,3) | B,2 z3 |] %14
V:4
 F, | B,,2 B, F,2 F, | B,,3 B,, x B, | B,,2 B,, B,,2 B,, | B,,3 B,, x B, | F,2 F, F,2 E, | %6
 D,2 F, B,,2 D, | C,2 D, E,2 =E, | F,2 F, F,2 F, | F,3- F,2 F, | F,3- F,2 F, | D,2 D, E,2 E, | %12
 (F,3 F,,3) | B,,2 x3 |] %14
V:5
 x | x6 | x6 | x6 | x6 | x6 | x6 | x6 | x6 | x6 | x6 | x6 | x6 | F,2 z2 x |] %14

